X: 20331
T: LAFAYETTE'S WALTZ
C:
%R: waltz
B: Elias Howe "The Musician's Companion" 1843 p.33 #1
S: http://imslp.org/wiki/The_Musician's_Companion_(Howe,_Elias)
Z: 2015 John Chambers <jc:trillian.mit.edu>
N: Bar 13 should probably be changed to the same as bar 9, changing G/A/ to A/B/.
M: 3/4
L: 1/8
K: G
% - - - - - - - - - - - - - - - - - - - - - - - - -
d>c |\
B2B2d>c | A2A2g2 | (gfedef) | (g2b2)d>c |\
B2B2d>c | A2A2[b2g2] | (gfedef) | g4 :|
|: D/F/G/A/ |\
B2B2D/F/(A/B/) | c2c2(c^c) | (d^cd=c).A.F | (G2B2) D/F/G/A/ |\
B2B2D/F/(G/A/) | c2c2(c^c) | (d^cd=c).A.F | G D/B,/ "^D.C."G,2 |]
% - - - - - - - - - - - - - - - - - - - - - - - - -

%%sep 1 1 500

